Obsidian-SemiLight/actions/22s/labplot-2x-zoom.svg

<svg viewBox="0 0 22 22" xmlns="http://www.w3.org/2000/svg"><path d="m19.191702 18.828671h-5.87247v-.910932l2.325911-2.350202q1.050608-1.062753 1.390689-1.518219.340081-.455465.504048-.880567.170041-.425101.170041-.917004 0-.704453-.419029-1.09919-.419028-.394737-1.147773-.394737-.546559 0-1.038462.182186-.48583.182187-1.09919.661944l-.582996-.734818q1.244939-1.0445346 2.720648-1.0445346 1.238866 0 1.961539.6376516.728744.631579.728744 1.724697 0 .582996-.21255 1.129554-.212551.540486-.637652 1.105264-.425101.558704-1.427126 1.536437l-1.852226 1.827935v.04858h4.487854v.995952z" fill="#3daee9"/><path d="m3 3v2h1v-1h1v-1zm5 0v1h2v-1zm4 0v1h2v-1zm5 0v1h1v1h1v-2zm-8 4v1h2.292969l-3.292969 3.292969.707031.707031 3.292969-3.2929688v2.2929688h1v-4h-1zm-6 1v2h1v-2zm0 5v6h6v-6zm1 1h4v4h-4z" fill="#4d4d4d"/></svg>

<svg xmlns="http://www.w3.org/2000/svg" viewBox="0 0 22 22">
  <defs id="defs3051">
    <style type="text/css" id="current-color-scheme">
      .ColorScheme-Text {
        color:#4d4d4d;
      }
      .ColorScheme-Highlight {
        color:#3daee9;
      }
      </style>
  </defs>
 <path 
     style="fill:currentColor;fill-opacity:1;stroke:none" 
     d="m 19.191702,18.828671 -5.87247,0 0,-0.910932 2.325911,-2.350202 q 1.050608,-1.062753 1.390689,-1.518219 0.340081,-0.455465 0.504048,-0.880567 0.170041,-0.425101 0.170041,-0.917004 0,-0.704453 -0.419029,-1.09919 -0.419028,-0.394737 -1.147773,-0.394737 -0.546559,0 -1.038462,0.182186 -0.48583,0.182187 -1.09919,0.661944 l -0.582996,-0.734818 q 1.244939,-1.0445346 2.720648,-1.0445346 1.238866,0 1.961539,0.6376516 0.728744,0.631579 0.728744,1.724697 0,0.582996 -0.21255,1.129554 -0.212551,0.540486 -0.637652,1.105264 -0.425101,0.558704 -1.427126,1.536437 l -1.852226,1.827935 0,0.04858 4.487854,0 0,0.995952 z"
     class="ColorScheme-Highlight"
     />
 <path 
     style="fill:currentColor;fill-opacity:1;stroke:none" 
     d="M 3,3 3,5 4,5 4,4 5,4 5,3 3,3 Z m 5,0 0,1 2,0 0,-1 -2,0 z m 4,0 0,1 2,0 0,-1 -2,0 z m 5,0 0,1 1,0 0,1 1,0 0,-2 -2,0 z M 9,7 9,8 11.292969,8 8,11.292969 8.707031,12 12,8.7070312 12,11 13,11 13,7 12,7 9,7 Z M 3,8 3,10 4,10 4,8 3,8 Z m 0,5 0,6 6,0 0,-6 -6,0 z m 1,1 4,0 0,4 -4,0 0,-4 z"
     class="ColorScheme-Text"
     />
</svg>
